; generated by Slic3r 1.2.9 on 2018-01-24 at 20:24:26

; external perimeters extrusion width = 0.50mm
; perimeters extrusion width = 0.58mm
; infill extrusion width = 0.58mm
; solid infill extrusion width = 0.58mm
; top infill extrusion width = 0.58mm

M107
M104 S205 ; set temperature
G28 ; home all axes
G1 Z5 F5000 ; lift nozzle

M109 S205 ; wait for temperature to be reached
G21 ; set units to millimeters
G90 ; use absolute coordinates
M82 ; use absolute distances for extrusion
G92 E0
G1 Z0.500 F7800.000
G1 E-2.00000 F2400.00000
G92 E0
G1 X74.544 Y91.615 F7800.000
G1 E2.00000 F2400.00000
G1 X76.719 Y90.754 E2.14774 F865.800
G1 X78.132 Y90.607 E2.23742
G1 X80.651 Y90.607 E2.39650
G1 X82.957 Y91.004 E2.54424
G1 X84.997 Y92.150 E2.69198 F865.800
G1 X86.536 Y93.912 E2.83972
G1 X87.398 Y96.087 E2.98746
G1 X87.544 Y97.500 E3.07714
G1 X87.544 Y102.500 E3.39287
G1 X87.147 Y104.806 E3.54061
G1 X86.001 Y106.846 E3.68835
G1 X84.239 Y108.385 E3.83609
G1 X82.064 Y109.246 E3.98383
G1 X80.651 Y109.393 E4.07351
G1 X78.132 Y109.393 E4.23259
G1 X75.826 Y108.996 E4.38033
G1 X73.786 Y107.850 E4.52807
G1 X72.247 Y106.088 E4.67581
G1 X71.386 Y103.913 E4.82356
G1 X71.239 Y102.500 E4.91323
G1 X71.239 Y97.500 E5.22896
G1 X71.636 Y95.194 E5.37670
G1 X72.782 Y93.154 E5.52444
G1 X74.488 Y91.664 E5.66745
G1 E3.66745 F2400.00000
G92 E0
G1 X80.151 Y102.000 F7800.000
G1 E2.00000 F2400.00000
G1 X78.632 Y102.000 E2.09593 F865.800
G1 X78.632 Y98.000 E2.34851
G1 X80.151 Y98.000 E2.44444
G1 X80.151 Y101.925 E2.69229
G1 X79.718 Y101.750 F7800.000
G1 X79.392 Y101.554 F7800.000
G1 X79.392 Y98.446 E3.10830 F865.800
M104 S200 ; set temperature
G1 Z0.900 F7800.000
G1 X80.148 Y101.307 F7800.000
G1 X78.635 Y101.307 E3.15030 F600.000
G1 X78.635 Y98.693 E3.22289
G1 X80.148 Y98.693 E3.26490
G1 X80.148 Y101.232 E3.33541
G1 X80.638 Y101.797 F7800.000
G1 X78.144 Y101.797 E3.40468 F600.000
G1 X78.144 Y98.203 E3.50454
G1 X80.638 Y98.203 E3.57382
G1 X80.638 Y101.722 E3.67159
G1 X80.901 Y102.250 F7800.000
G1 X77.882 Y102.250 E3.74235 F600.000
G1 X77.692 Y102.250 E3.74764 F900.000
G1 X77.692 Y97.750 E3.87264
G1 X77.882 Y97.750 E3.87792
G1 X80.901 Y97.750 E3.94868 F600.000
G1 X81.091 Y97.750 E3.95394 F900.000
G1 X81.091 Y102.250 E4.07894
G1 X80.976 Y102.250 E4.08213
G1 X79.606 Y101.014 F7800.000
G1 X79.854 Y100.765 E4.09363 F643.842
G1 X79.854 Y99.946 E4.12046
G1 X78.928 Y100.872 E4.16337
G1 X78.928 Y100.054 E4.19020
G1 X79.854 Y99.128 E4.23311
G1 X79.177 Y98.986 E4.25580
G1 X78.928 Y99.235 E4.26730
G1 Z1.300 F7800.000
G1 E2.26730 F2400.00000
G92 E0
G1 X80.501 Y101.307 F7800.000
G1 E2.00000 F2400.00000
G1 X78.277 Y101.307 E2.06178 F600.000
G1 X78.277 Y98.693 E2.13437
G1 X80.501 Y98.693 E2.19615
G1 X80.501 Y101.232 E2.26666
G1 X80.992 Y101.797 F7800.000
G1 X77.786 Y101.797 E2.35571 F600.000
G1 X77.786 Y98.203 E2.45557
G1 X80.992 Y98.203 E2.54463
G1 X80.992 Y101.722 E2.64240
G1 X81.444 Y102.250 F7800.000
G1 X77.333 Y102.250 E2.73875 F600.000
G1 X77.333 Y97.750 E2.84421
G1 X81.444 Y97.750 E2.94056
G1 X81.444 Y102.175 E3.04427
G1 X81.011 Y102.000 F7800.000
G1 E1.04427 F2400.00000
G92 E0
G1 X80.208 Y99.235 F7800.000
G1 E2.00000 F2400.00000
G1 X79.959 Y98.986 E2.01113 F600.000
G1 X79.167 Y98.986 E2.03624
G1 X80.208 Y100.027 E2.08287
G1 X80.208 Y100.819 E2.10798
G1 X78.570 Y99.181 E2.18140
G1 X78.570 Y99.973 E2.20651
G1 X79.610 Y101.014 E2.25314
G1 X78.818 Y101.014 E2.27825
G1 X78.570 Y100.765 E2.28938
M106 S255
G1 Z1.700 F7800.000
G1 E0.28938 F2400.00000
G92 E0
G1 X81.283 Y101.797 F7800.000
G1 E2.00000 F2400.00000
G1 X80.314 Y101.797 E2.02692 F600.000
G1 X80.314 Y98.203 E2.12678
G1 X81.283 Y98.203 E2.15370
G1 X81.283 Y101.722 E2.25148
G1 X81.736 Y102.250 F7800.000
G1 X79.862 Y102.250 E2.29540 F600.000
G1 X79.862 Y97.750 E2.40086
G1 X81.736 Y97.750 E2.44479
G1 X81.736 Y102.175 E2.54849
G1 X81.303 Y102.000 F7800.000
G1 X80.799 Y101.552 F7800.000
G1 X80.799 Y98.448 E2.73602 F781.109
G1 E0.73602 F2400.00000
G92 E0
G1 X79.612 Y102.500 F7800.000
G1 X79.612 Y102.500 F7800.000
G1 X79.476 Y102.500 F7800.000
G1 X79.339 Y102.500 F7800.000
G1 X78.637 Y101.797 F7800.000
G1 E2.00000 F2400.00000
G1 X77.490 Y101.797 E2.03185 F600.000
G1 X77.490 Y98.203 E2.13171
G1 X78.637 Y98.203 E2.16357
G1 X78.637 Y101.722 E2.26134
G1 X79.089 Y102.250 F7800.000
G1 X77.038 Y102.250 E2.30943 F600.000
G1 X77.038 Y97.750 E2.41489
G1 X79.089 Y97.750 E2.46298
G1 X79.089 Y102.175 E2.56668
G1 X78.656 Y102.000 F7800.000
G1 X78.064 Y101.552 F7800.000
G1 X78.064 Y98.448 E2.75421 F781.109
G1 Z2.100 F7800.000
G1 E0.75421 F2400.00000
G92 E0
G1 X81.095 Y101.797 F7800.000
G1 E2.00000 F2400.00000
G1 X81.095 Y98.203 E2.09986 F600.000
G1 X81.457 Y98.203 E2.10992
G1 X81.457 Y101.797 E2.20978
G1 X81.170 Y101.797 E2.21775
G1 X80.643 Y102.250 F7800.000
G1 X80.643 Y97.750 E2.32322 F600.000
G1 X81.910 Y97.750 E2.35292
G1 X81.910 Y102.250 E2.45838
G1 X80.718 Y102.250 E2.48632
G1 X80.893 Y101.817 F7800.000
G1 E0.48632 F2400.00000
G92 E0
G1 X80.393 Y102.500 F7800.000
G1 X80.393 Y102.500 F7800.000
G1 X79.372 Y102.500 F7800.000
G1 X78.352 Y102.500 F7800.000
G1 X77.650 Y101.797 F7800.000
G1 E2.00000 F2400.00000
G1 X77.321 Y101.797 E2.00914 F600.000
G1 X77.321 Y98.203 E2.10900
G1 X77.650 Y98.203 E2.11815
G1 X77.650 Y101.722 E2.21592
G1 X78.102 Y102.250 F7800.000
G1 X76.868 Y102.250 E2.24485 F600.000
G1 X76.868 Y97.750 E2.35031
G1 X78.102 Y97.750 E2.37924
G1 X78.102 Y102.175 E2.48295
G1 X77.669 Y102.000 F7800.000
G1 Z2.500 F7800.000
G1 E0.48295 F2400.00000
G92 E0
G1 X80.946 Y102.250 F7800.000
G1 E2.00000 F2400.00000
G1 X80.946 Y97.750 E2.10546 F600.000
G1 X82.048 Y97.750 E2.13128
G1 X82.048 Y102.250 E2.23675
G1 X81.021 Y102.250 E2.26081
G1 X81.196 Y101.817 F7800.000
G1 X81.497 Y102.024 F7800.000
G1 X81.497 Y97.976 E2.50533 F600.000
G1 E0.50533 F2400.00000
G92 E0
G1 X80.696 Y102.500 F7800.000
G1 X80.696 Y102.500 F7800.000
G1 X79.379 Y102.500 F7800.000
G1 X78.062 Y102.500 F7800.000
G1 X77.812 Y102.250 F7800.000
G1 E2.00000 F2400.00000
G1 X76.726 Y102.250 E2.02544 F600.000
G1 X76.726 Y97.750 E2.13091
G1 X77.812 Y97.750 E2.15635
G1 X77.812 Y102.175 E2.26006
G1 X77.379 Y102.000 F7800.000
G1 X77.269 Y102.024 F7800.000
G1 X77.269 Y97.976 E2.50458 F600.000
G1 Z2.900 F7800.000
G1 E0.50458 F2400.00000
G92 E0
G1 X81.106 Y102.250 F7800.000
G1 E2.00000 F2400.00000
G1 X81.106 Y97.750 E2.10546 F600.000
G1 X82.095 Y97.750 E2.12866
G1 X82.095 Y102.250 E2.23413
G1 X81.181 Y102.250 E2.25557
G1 X81.356 Y101.817 F7800.000
G1 X81.600 Y102.024 F7800.000
G1 X81.600 Y97.976 E2.50009 F600.000
G1 E0.50009 F2400.00000
G92 E0
G1 X80.856 Y102.500 F7800.000
G1 X80.856 Y102.500 F7800.000
G1 X79.401 Y102.500 F7800.000
G1 X77.946 Y102.500 F7800.000
G1 X77.696 Y102.250 F7800.000
G1 E2.00000 F2400.00000
G1 X76.682 Y102.250 E2.02376 F600.000
G1 X76.682 Y97.750 E2.12923
G1 X77.696 Y97.750 E2.15299
G1 X77.696 Y102.175 E2.25669
G1 X77.263 Y102.000 F7800.000
G1 X77.189 Y102.024 F7800.000
G1 X77.189 Y97.976 E2.50122 F600.000
G1 Z3.300 F7800.000
G1 E0.50122 F2400.00000
G92 E0
G1 X81.106 Y102.250 F7800.000
G1 E2.00000 F2400.00000
G1 X81.106 Y97.750 E2.10546 F600.000
G1 X82.129 Y97.750 E2.12944
G1 X82.129 Y102.250 E2.23491
G1 X81.181 Y102.250 E2.25713
G1 X81.356 Y101.817 F7800.000
G1 X81.617 Y102.024 F7800.000
G1 X81.617 Y97.976 E2.50165 F600.000
G1 E0.50165 F2400.00000
G92 E0
G1 X80.856 Y102.500 F7800.000
G1 X80.856 Y102.500 F7800.000
G1 X79.386 Y102.500 F7800.000
G1 X77.916 Y102.500 F7800.000
G1 X77.666 Y102.250 F7800.000
G1 E2.00000 F2400.00000
G1 X76.644 Y102.250 E2.02394 F600.000
G1 X76.644 Y97.750 E2.12941
G1 X77.666 Y97.750 E2.15335
G1 X77.666 Y102.175 E2.25706
G1 X77.233 Y102.000 F7800.000
G1 X77.155 Y102.024 F7800.000
G1 X77.155 Y97.976 E2.50158 F600.000
G1 Z3.700 F7800.000
G1 E0.50158 F2400.00000
G92 E0
G1 X81.009 Y102.250 F7800.000
G1 E2.00000 F2400.00000
G1 X81.009 Y97.750 E2.10546 F600.000
G1 X82.059 Y97.750 E2.13008
G1 X82.059 Y102.250 E2.23555
G1 X81.084 Y102.250 E2.25841
G1 X81.259 Y101.817 F7800.000
G1 X81.534 Y102.024 F7800.000
G1 X81.534 Y97.976 E2.50293 F600.000
G1 E0.50293 F2400.00000
G92 E0
G1 X80.759 Y102.500 F7800.000
G1 X80.759 Y102.500 F7800.000
G1 X79.380 Y102.500 F7800.000
G1 X78.001 Y102.500 F7800.000
G1 X77.751 Y102.250 F7800.000
G1 E2.00000 F2400.00000
G1 X76.718 Y102.250 E2.02421 F600.000
G1 X76.718 Y97.750 E2.12968
G1 X77.751 Y97.750 E2.15389
G1 X77.751 Y102.175 E2.25760
G1 X77.318 Y102.000 F7800.000
G1 X77.234 Y102.024 F7800.000
G1 X77.234 Y97.976 E2.50212 F600.000
M106 S249.9
G1 Z4.100 F7800.000
G1 E0.50212 F2400.00000
G92 E0
G1 X111.976 Y101.307 F7800.000
G1 E2.00000 F2400.00000
M106 S255
G1 X110.174 Y101.307 E2.05007 F900.000
G1 X110.174 Y98.693 E2.12266
G1 X111.976 Y98.693 E2.17273
G1 X111.976 Y101.232 E2.24324
M106 S249.9
G1 X112.467 Y101.797 F7800.000
M106 S255
G1 X109.683 Y101.797 E2.32058 F900.000
G1 X109.683 Y98.203 E2.42044
G1 X112.467 Y98.203 E2.49778
G1 X112.467 Y101.722 E2.59556
M106 S249.9
G1 X112.920 Y102.250 F7800.000
M106 S255
G1 X109.230 Y102.250 E2.69804 F900.000
G1 X109.230 Y97.750 E2.82304
G1 X112.920 Y97.750 E2.92552
G1 X112.920 Y102.175 E3.04843
M106 S249.9
G1 X111.393 Y100.996 F7800.000
M106 S255
G1 X111.666 Y100.723 E3.06237 F3600.000
G1 X111.666 Y99.847 E3.09395
G1 X110.520 Y100.993 E3.15237
G1 X110.484 Y100.153 E3.18267
G1 X111.630 Y99.007 E3.24108
G1 X110.757 Y99.004 E3.27254
G1 X110.484 Y99.277 E3.28647
M106 S249.9
G1 E1.28647 F2400.00000
G92 E0
G1 X108.980 Y102.500 F7800.000
G1 X104.480 Y100.000 F7800.000
G1 X86.946 Y102.500 F7800.000
G1 X84.946 Y102.500 F7800.000
G1 X84.244 Y101.797 F7800.000
G1 E2.00000 F2400.00000
M106 S255
G1 X83.132 Y101.797 E2.03089 F900.000
G1 X83.132 Y98.203 E2.13075
G1 X84.244 Y98.203 E2.16164
G1 X84.244 Y101.722 E2.25942
M106 S249.9
G1 X84.696 Y102.250 F7800.000
M106 S255
G1 X82.679 Y102.250 E2.31545 F900.000
G1 X82.679 Y97.750 E2.44045
G1 X84.696 Y97.750 E2.49648
G1 X84.696 Y102.175 E2.61940
M106 S249.9
G1 X83.688 Y101.552 F7800.000
G1 X83.688 Y98.448 E2.80692 F1200.000
G1 E0.80692 F2400.00000
G92 E0
G1 X82.429 Y102.500 F7800.000
G1 X82.429 Y102.500 F7800.000
G1 X82.334 Y102.500 F7800.000
G1 X82.239 Y102.500 F7800.000
G1 X81.989 Y102.250 F7800.000
G1 E2.00000 F2400.00000
G1 X80.798 Y102.250 E2.02791 F900.000
G1 X80.798 Y97.750 E2.13337
G1 X81.989 Y97.750 E2.16128
G1 X81.989 Y102.175 E2.26499
G1 X81.556 Y102.000 F7800.000
G1 X81.394 Y102.024 F7800.000
G1 X81.394 Y97.976 E2.50951 F1200.000
G1 E0.50951 F2400.00000
G92 E0
G1 X80.548 Y97.500 F7800.000
G1 X80.548 Y97.500 F7800.000
G1 X79.399 Y97.500 F7800.000
G1 X78.250 Y97.500 F7800.000
G1 X77.548 Y101.797 F7800.000
G1 E2.00000 F2400.00000
G1 X77.244 Y101.797 E2.00845 F900.000
G1 X77.244 Y98.203 E2.10831
G1 X77.548 Y98.203 E2.11675
G1 X77.548 Y101.722 E2.21453
G1 X78.000 Y102.250 F7800.000
G1 X76.791 Y102.250 E2.24287 F900.000
G1 X76.791 Y97.750 E2.34833
G1 X78.000 Y97.750 E2.37667
G1 X78.000 Y102.175 E2.48038
G1 X77.567 Y102.000 F7800.000
M106 S239.7
G1 Z4.500 F7800.000
G1 E0.48038 F2400.00000
G92 E0
G1 X108.364 Y101.307 F7800.000
G1 E2.00000 F2400.00000
M106 S255
G1 X108.364 Y98.693 E2.07259 F900.000
G1 X108.730 Y98.693 E2.08276
M106 S239.7
G1 X113.420 Y98.693 E2.21302 F900.000
M106 S255
G1 X113.751 Y98.693 E2.22221 F900.000
G1 X113.751 Y101.307 E2.29480
G1 X113.420 Y101.307 E2.30399
M106 S239.7
G1 X108.730 Y101.307 E2.43425 F900.000
M106 S255
G1 X108.439 Y101.307 E2.44234 F900.000
M106 S239.7
G1 X107.873 Y101.797 F7800.000
M106 S255
G1 X107.873 Y98.203 E2.54220 F900.000
G1 X108.730 Y98.203 E2.56600
M106 S239.7
G1 X113.420 Y98.203 E2.69626 F900.000
M106 S255
G1 X114.241 Y98.203 E2.71909 F900.000
G1 X114.241 Y101.797 E2.81895
G1 X113.420 Y101.797 E2.84177
M106 S239.7
G1 X108.730 Y101.797 E2.97203 F900.000
M106 S255
G1 X107.948 Y101.797 E2.99375 F900.000
M106 S239.7
G1 X107.421 Y102.250 F7800.000
M106 S255
G1 X107.421 Y97.750 E3.11875 F900.000
G1 X108.730 Y97.750 E3.15513
M106 S239.7
G1 X113.420 Y97.750 E3.26503 F900.000
M106 S255
G1 X114.694 Y97.750 E3.30043 F900.000
G1 X114.694 Y102.250 E3.42543
G1 X113.420 Y102.250 E3.46082
M106 S239.7
G1 X108.730 Y102.250 E3.57072 F900.000
M106 S255
G1 X107.496 Y102.250 E3.60502 F900.000
M106 S239.7
G1 E1.60502 F2400.00000
G92 E0
G1 X109.847 Y101.039 F7800.000
G1 E2.00000 F2400.00000
M106 S255
G1 X109.957 Y100.626 E2.02303 F3600.000
G1 X109.074 Y101.039 E2.07549
G1 X109.631 Y98.961 E2.19127
G1 X108.859 Y98.961 E2.23282
G1 X108.748 Y99.374 E2.25585
M106 S239.7
G1 E0.25585 F2400.00000
G92 E0
G1 X110.445 Y101.025 F7800.000
G1 E2.00000 F2400.00000
M106 S255
G1 X110.445 Y98.975 E2.06201 F3600.000
G1 X111.016 Y98.975 E2.07931
G1 X111.016 Y101.025 E2.14132
G1 X111.588 Y101.025 E2.15863
G1 X111.588 Y98.975 E2.22064
G1 X112.160 Y98.975 E2.23794
G1 X112.160 Y101.025 E2.29995
G1 X112.732 Y101.025 E2.31725
G1 X112.732 Y98.975 E2.37926
G1 X113.304 Y98.975 E2.39656
G1 X113.304 Y101.025 E2.45858
M106 S239.7
G1 E0.45858 F2400.00000
G92 E0
G1 X107.171 Y102.500 F7800.000
G1 X102.671 Y100.000 F7800.000
G1 X89.285 Y102.500 F7800.000
G1 X87.285 Y102.500 F7800.000
G1 X81.237 Y101.307 F7800.000
G1 E2.00000 F2400.00000
G1 X81.237 Y98.693 E2.07259 F900.000
G1 X85.196 Y98.693 E2.18257
M106 S255
G1 X86.092 Y98.693 E2.20745 F900.000
G1 X86.092 Y101.307 E2.28004
G1 X85.196 Y101.307 E2.30493
M106 S239.7
G1 X81.312 Y101.307 E2.41282 F900.000
G1 X80.746 Y101.797 F7800.000
G1 X80.746 Y98.203 E2.51268 F900.000
G1 X85.196 Y98.203 E2.63630
M106 S255
G1 X86.583 Y98.203 E2.67482 F900.000
G1 X86.583 Y101.797 E2.77468
G1 X85.196 Y101.797 E2.81320
M106 S239.7
G1 X80.821 Y101.797 E2.93473 F900.000
G1 X80.294 Y102.250 F7800.000
M106 S255
G1 X80.298 Y97.750 E3.05973 F900.000
M106 S239.7
G1 X85.196 Y97.750 E3.17452 F900.000
M106 S255
G1 X87.035 Y97.750 E3.22561 F900.000
G1 X87.035 Y102.250 E3.35061
G1 X85.196 Y102.250 E3.40170
M106 S239.7
G1 X80.369 Y102.250 E3.51484 F900.000
G1 X80.544 Y101.817 F7800.000
G1 E1.51484 F2400.00000
G92 E0
G1 X82.221 Y98.975 F7800.000
G1 E2.00000 F2400.00000
M106 S255
G1 X82.221 Y101.025 E2.06174 F3600.000
G1 X82.792 Y101.025 E2.07893
G1 X82.792 Y98.975 E2.14068
G1 X83.363 Y98.975 E2.15787
G1 X83.363 Y101.025 E2.21961
G1 X83.933 Y101.025 E2.23680
G1 X83.933 Y98.975 E2.29854
G1 X84.504 Y98.975 E2.31573
G1 X84.504 Y101.025 E2.37747
G1 X85.075 Y101.025 E2.39467
G1 X85.075 Y98.975 E2.45641
G1 X85.645 Y98.975 E2.47360
G1 X85.645 Y101.025 E2.53534
M106 S239.7
G1 E0.53534 F2400.00000
G92 E0
G1 X80.044 Y102.500 F7800.000
G1 X80.044 Y102.500 F7800.000
G1 X79.400 Y102.500 F7800.000
G1 X78.757 Y102.500 F7800.000
G1 X78.055 Y101.797 F7800.000
G1 E2.00000 F2400.00000
G1 X77.437 Y101.797 E2.01716 F900.000
G1 X77.437 Y98.203 E2.11702
G1 X78.055 Y98.203 E2.13417
G1 X78.055 Y101.722 E2.23195
G1 X78.500 Y102.250 F7800.000
G1 X76.985 Y102.250 E2.26748 F900.000
G1 X76.985 Y97.750 E2.37294
G1 X78.500 Y97.750 E2.40846
M106 S255
G1 X78.507 Y102.182 E2.53157 F900.000
M106 S239.7
G1 X77.746 Y101.552 F7800.000
G1 X77.746 Y98.448 E2.61780 F1200.000
M106 S226.95
G1 Z4.900 F7800.000
G1 E0.61780 F2400.00000
G92 E0
G1 X107.226 Y101.307 F7800.000
G1 E2.00000 F2400.00000
G1 X107.226 Y98.693 E2.07259 F900.000
G1 X114.814 Y98.693 E2.28336
G1 X114.814 Y101.307 E2.35595
G1 X107.301 Y101.307 E2.56464
G1 E0.56464 F2400.00000
G92 E0
G1 X115.194 Y101.797 F7800.000
G1 E2.00000 F2400.00000
G1 X106.921 Y101.797 E2.22981 F900.000
M106 S255
G1 X106.735 Y101.797 E2.23496 F900.000
G1 X106.735 Y98.203 E2.33482
G1 X106.921 Y98.203 E2.33997
M106 S226.95
G1 X115.194 Y98.203 E2.56978 F900.000
M106 S255
G1 X115.305 Y98.203 E2.57286 F900.000
G1 X115.305 Y101.797 E2.67272
G1 X115.269 Y101.797 E2.67372
M106 S226.95
G1 X115.757 Y102.250 F7800.000
M106 S255
G1 X115.194 Y102.250 E2.68937 F900.000
M106 S226.95
G1 X106.921 Y102.250 E2.88327 F900.000
M106 S255
G1 X106.283 Y102.250 E2.90099 F900.000
G1 X106.283 Y97.750 E3.02599
G1 X106.921 Y97.750 E3.04371
M106 S226.95
G1 X115.194 Y97.750 E3.23760 F900.000
M106 S255
G1 X115.757 Y97.750 E3.25325 F900.000
G1 X115.757 Y102.175 E3.37617
M106 S226.95
G1 X114.273 Y101.014 F7800.000
G1 X114.521 Y100.765 E3.38616 F1200.000
G1 X114.521 Y100.054 E3.40639
G1 X113.562 Y101.014 E3.44498
G1 X112.851 Y101.014 E3.46521
