; generated by PrusaSlicer 2.2.0-alpha2+win64 on 2020-01-03 at 10:08:40 UTC


;
;

;
;
; 

; external perimeters extrusion width = 0.45mm
; perimeters extrusion width = 0.45mm
; infill extrusion width = 0.45mm
; solid infill extrusion width = 0.45mm
; top infill extrusion width = 0.40mm
; first layer extrusion width = 0.42mm

M73 P0 R37
M201 X1250 Y1250 Z400 E5000 ; sets maximum accelerations, mm/sec^2
M203 X180 Y180 Z12 E80 ; sets maximum feedrates, mm/sec
M204 P1250 R1250 T1250 ; sets acceleration (P, T) and retract acceleration (R), mm/sec^2
M205 X8.00 Y8.00 Z2.00 E10.00 ; sets the jerk limits, mm/sec
M205 S0 T0 ; sets the minimum extruding and travel feed rate, mm/sec
M107
G90 ; use absolute coordinates
M83 ; extruder relative mode
M92 E317 ; set steps/unit for extruder
M104 S170 ; set extruder temp for bed leveling
M140 S60 ; set bed temp
M109 R170 ; wait for bed leveling temp
M190 S60 ; wait for bed temp
G28 ; home all without mesh bed level
G29 ; mesh bed leveling 
M104 S215 ; set extruder temp
G92 E0.0
G1 Y-2.0 X179 F2400
G1 Z3 F720
M109 S215 ; wait for extruder temp

; intro line
G1 X170 F1000
G1 Z0.2 F720
G1 X110.0 E8.0 F900
M73 P0 R37
G1 X40.0 E10.0 F700
G92 E0.0

M221 S95 ; set flow
G21 ; set units to millimeters
G90 ; use absolute coordinates
M83 ; use relative distances for extrusion
M900 K0.2 ; Filament gcode
;BEFORE_LAYER_CHANGE
G92 E0.0
;0.2


G1 Z0.200 F9000.000
;AFTER_LAYER_CHANGE
;0.2
G1 E-3.20000 F4200.00000
G1 Z0.400 F9000.000
G1 X5.458 Y136.971
G1 Z0.200
G1 E3.20000 F2400.00000
M204 S800
G1 F1200.000
G1 X5.950 Y136.167 E0.02955
G1 X6.357 Y135.788 E0.01745
G1 X6.829 Y135.500 E0.01733
G1 X7.353 Y135.311 E0.01745
G1 X7.904 Y135.232 E0.01745
G1 X28.023 Y135.230 E0.63084
G1 X29.025 Y135.420 E0.03195
G1 X29.885 Y135.958 E0.03183
G1 X30.492 Y136.771 E0.03183
G1 X30.764 Y137.754 E0.03195
G1 X30.772 Y158.070 E0.63700
G1 X30.580 Y158.997 E0.02968
G1 X30.089 Y159.801 E0.02955
G1 X29.665 Y160.192 E0.01809
G1 X29.169 Y160.487 E0.01809
G1 X28.622 Y160.671 E0.01809
G1 X28.049 Y160.738 E0.01809
G1 X7.933 Y160.737 E0.63071
G1 X7.006 Y160.545 E0.02968
G1 X6.202 Y160.053 E0.02955
G1 X5.811 Y159.629 E0.01809
G1 X5.516 Y159.133 E0.01809
G1 X5.332 Y158.586 E0.01809
G1 X5.265 Y158.013 E0.01809
G1 X5.266 Y137.898 E0.63071
G1 X5.446 Y137.030 E0.02779
M204 S1250
G1 E-2.24000 F4200.00000
G1 F7200.000
G1 X5.950 Y136.167 E-0.55368
G1 X6.357 Y135.788 E-0.30848
G1 X6.434 Y135.741 E-0.04984
G1 E-0.04800 F4200.00000
G1 Z0.400 F9000.000
G1 X7.011 Y135.831
G1 Z0.200
G1 E3.20000 F2400.00000
M204 S800
G1 F1200.000
G1 X7.934 Y135.608 E0.02977
G1 X28.023 Y135.607 E0.62987
G1 X28.890 Y135.772 E0.02767
G1 X29.639 Y136.244 E0.02778
G1 X30.162 Y136.955 E0.02767
G1 X30.390 Y137.808 E0.02767
G1 X30.395 Y158.049 E0.63464
G1 X30.228 Y158.861 E0.02602
G1 X29.792 Y159.567 E0.02602
G1 X29.426 Y159.900 E0.01550
G1 X29.000 Y160.149 E0.01550
G1 X28.531 Y160.305 E0.01550
G1 X28.039 Y160.361 E0.01550
G1 X7.951 Y160.360 E0.62987
G1 X7.142 Y160.193 E0.02590
G1 X6.436 Y159.757 E0.02602
G1 X6.103 Y159.391 E0.01550
G1 X5.854 Y158.964 E0.01550
G1 X5.698 Y158.495 E0.01550
G1 X5.642 Y158.004 E0.01550
G1 X5.643 Y137.915 E0.62987
G1 X5.810 Y137.106 E0.02590
G1 X6.247 Y136.400 E0.02602
G1 X6.963 Y135.867 E0.02801
M204 S1250
G1 E-2.24000 F4200.00000
G1 F7200.000
G1 X7.934 Y135.608 E-0.55699
G1 X8.575 Y135.608 E-0.35501
G1 E-0.04800 F4200.00000
G1 Z0.400 F9000.000
G1 X8.806 Y138.771
G1 Z0.200
G1 E3.20000 F2400.00000
M204 S800
G1 F1200.000
G1 X27.232 Y138.771 E0.57773
G1 X27.232 Y157.197 E0.57773
G1 X8.806 Y157.197 E0.57773
G1 X8.806 Y138.831 E0.57585
M204 S1250
G1 X8.429 Y138.394 F9000.000
M204 S800
G1 F1200.000
G1 X27.609 Y138.394 E0.60138
G1 X27.609 Y157.574 E0.60138
G1 X8.429 Y157.574 E0.60138
G1 X8.429 Y138.454 E0.59949
M204 S1250
G1 X8.816 Y138.497 F9000.000
G1 E-2.24000 F4200.00000
G1 F7200.000
G1 X10.075 Y138.449 E-0.91200
G1 E-0.04800 F4200.00000
G1 Z0.400 F9000.000
G1 X27.119 Y139.651
G1 Z0.200
G1 E3.20000 F2400.00000
M204 S800
G1 F1200.000
G1 X26.522 Y139.054 E0.02664
G1 X25.985 Y139.054 E0.01692
G1 X26.949 Y140.018 E0.04299
G1 X26.949 Y140.554 E0.01692
G1 X25.449 Y139.054 E0.06692
G1 X24.913 Y139.054 E0.01692
G1 X26.949 Y141.090 E0.09084
G1 X26.949 Y141.627 E0.01692
G1 X24.376 Y139.054 E0.11477
G1 X23.840 Y139.054 E0.01692
G1 X26.949 Y142.163 E0.13869
G1 X26.949 Y142.700 E0.01692
G1 X23.303 Y139.054 E0.16261
G1 X22.767 Y139.054 E0.01692
G1 X26.949 Y143.236 E0.18654
G1 X26.949 Y143.772 E0.01692
G1 X22.231 Y139.054 E0.21046
G1 X21.694 Y139.054 E0.01692
G1 X26.949 Y144.309 E0.23438
G1 X26.949 Y144.845 E0.01692
G1 X21.158 Y139.054 E0.25831
G1 X20.622 Y139.054 E0.01692
G1 X26.949 Y145.382 E0.28223
G1 X26.949 Y145.918 E0.01692
G1 X20.085 Y139.054 E0.30615
G1 X19.549 Y139.054 E0.01692
G1 X26.949 Y146.454 E0.33008
G1 X26.949 Y146.991 E0.01692
G1 X19.012 Y139.054 E0.35400
G1 X18.476 Y139.054 E0.01692
G1 X26.949 Y147.527 E0.37793
G1 X26.949 Y148.064 E0.01692
G1 X17.940 Y139.054 E0.40185
G1 X17.403 Y139.054 E0.01692
G1 X26.949 Y148.600 E0.42577
G1 X26.949 Y149.136 E0.01692
G1 X16.867 Y139.054 E0.44970
G1 X16.330 Y139.054 E0.01692
G1 X26.949 Y149.673 E0.47362
G1 X26.949 Y150.209 E0.01692
G1 X15.794 Y139.054 E0.49754
G1 X15.258 Y139.054 E0.01692
G1 X26.949 Y150.745 E0.52147
G1 X26.949 Y151.282 E0.01692
G1 X14.721 Y139.054 E0.54539
G1 X14.185 Y139.054 E0.01692
G1 X26.949 Y151.818 E0.56931
G1 X26.949 Y152.355 E0.01692
G1 X13.648 Y139.054 E0.59324
G1 X13.112 Y139.054 E0.01692
G1 X26.949 Y152.891 E0.61716
G1 X26.949 Y153.427 E0.01692
G1 X12.576 Y139.054 E0.64109
G1 X12.039 Y139.054 E0.01692
G1 X26.949 Y153.964 E0.66501
G1 X26.949 Y154.500 E0.01692
G1 X11.503 Y139.054 E0.68893
G1 X10.966 Y139.054 E0.01692
G1 X26.949 Y155.037 E0.71286
G1 X26.949 Y155.573 E0.01692
G1 X10.430 Y139.054 E0.73678
G1 X9.894 Y139.054 E0.01692
G1 X26.949 Y156.109 E0.76070
G1 X26.949 Y156.646 E0.01692
G1 X9.357 Y139.054 E0.78463
G1 X9.089 Y139.054 E0.00846
G1 X9.089 Y139.322 E0.00846
G1 X26.681 Y156.914 E0.78462
G1 X26.145 Y156.914 E0.01692
G1 X9.089 Y139.858 E0.76070
G1 X9.089 Y140.395 E0.01692
G1 X25.608 Y156.914 E0.73678
G1 X25.072 Y156.914 E0.01692
G1 X9.089 Y140.931 E0.71285
G1 X9.089 Y141.467 E0.01692
G1 X24.536 Y156.914 E0.68893
G1 X23.999 Y156.914 E0.01692
G1 X9.089 Y142.004 E0.66500
G1 X9.089 Y142.540 E0.01692
G1 X23.463 Y156.914 E0.64108
G1 X22.926 Y156.914 E0.01692
G1 X9.089 Y143.077 E0.61716
G1 X9.089 Y143.613 E0.01692
G1 X22.390 Y156.914 E0.59323
G1 X21.854 Y156.914 E0.01692
G1 X9.089 Y144.149 E0.56931
G1 X9.089 Y144.686 E0.01692
G1 X21.317 Y156.914 E0.54539
M73 P3 R36
G1 X20.781 Y156.914 E0.01692
G1 X9.089 Y145.222 E0.52146
G1 X9.089 Y145.759 E0.01692
G1 X20.244 Y156.914 E0.49754
G1 X19.708 Y156.914 E0.01692
G1 X9.089 Y146.295 E0.47362
G1 X9.089 Y146.831 E0.01692
G1 X19.172 Y156.914 E0.44969
G1 X18.635 Y156.914 E0.01692
G1 X9.089 Y147.368 E0.42577
G1 X9.089 Y147.904 E0.01692
G1 X18.099 Y156.914 E0.40184
G1 X17.563 Y156.914 E0.01692
G1 X9.089 Y148.441 E0.37792
G1 X9.089 Y148.977 E0.01692
G1 X17.026 Y156.914 E0.35400
G1 X16.490 Y156.914 E0.01692
G1 X9.089 Y149.513 E0.33007
G1 X9.089 Y150.050 E0.01692
G1 X15.953 Y156.914 E0.30615
G1 X15.417 Y156.914 E0.01692
G1 X9.089 Y150.586 E0.28223
G1 X9.089 Y151.123 E0.01692
G1 X14.881 Y156.914 E0.25830
G1 X14.344 Y156.914 E0.01692
G1 X9.089 Y151.659 E0.23438
G1 X9.089 Y152.195 E0.01692
G1 X13.808 Y156.914 E0.21045
G1 X13.271 Y156.914 E0.01692
G1 X9.089 Y152.732 E0.18653
G1 X9.089 Y153.268 E0.01692
G1 X12.735 Y156.914 E0.16261
G1 X12.199 Y156.914 E0.01692
G1 X9.089 Y153.804 E0.13868
G1 X9.089 Y154.341 E0.01692
G1 X11.662 Y156.914 E0.11476
G1 X11.126 Y156.914 E0.01692
G1 X9.089 Y154.877 E0.09084
G1 X9.089 Y155.414 E0.01692
G1 X10.589 Y156.914 E0.06691
G1 X10.053 Y156.914 E0.01692
G1 X9.089 Y155.950 E0.04299
G1 X9.089 Y156.486 E0.01692
G1 X9.686 Y157.084 E0.02663
M204 S1250
M106 S255
;BEFORE_LAYER_CHANGE
G92 E0.0
;0.35


G1 Z0.350 F9000.000
;AFTER_LAYER_CHANGE
;0.35
G1 E-3.20000 F4200.00000
G1 Z0.550 F9000.000
G1 X7.006 Y160.545
G1 Z0.350
G1 E3.20000 F2400.00000
G1 X6.202 Y160.053 E0.02279
G1 X5.811 Y159.629 E0.01396
G1 X5.516 Y159.133 E0.01396
G1 X5.332 Y158.586 E0.01396
G1 X5.265 Y158.013 E0.01396
G1 X5.266 Y137.898 E0.48649
G1 X5.458 Y136.971 E0.02289
G1 X5.950 Y136.167 E0.02279
G1 X6.357 Y135.788 E0.01346
G1 X6.829 Y135.500 E0.01336
G1 X7.353 Y135.311 E0.01346
G1 X7.904 Y135.232 E0.01346
G1 X28.023 Y135.230 E0.48659
G1 X29.025 Y135.420 E0.02465
G1 X29.885 Y135.958 E0.02455
G1 X30.492 Y136.771 E0.02455
G1 X30.764 Y137.754 E0.02465
G1 X30.772 Y158.070 E0.49134
G1 X30.580 Y158.997 E0.02289
G1 X30.089 Y159.801 E0.02279
G1 X29.665 Y160.192 E0.01396
G1 X29.169 Y160.487 E0.01396
G1 X28.622 Y160.671 E0.01396
G1 X28.049 Y160.738 E0.01396
G1 X7.933 Y160.737 E0.48649
G1 X7.065 Y160.557 E0.02144
G1 E-2.24000 F4200.00000
G1 F7200.000
G1 X6.202 Y160.053 E-0.55368
G1 X5.811 Y159.629 E-0.31978
G1 X5.775 Y159.570 E-0.03854
G1 E-0.04800 F4200.00000
G1 Z0.550 F9000.000
G1 X8.662 Y157.341
G1 Z0.350
G1 E3.20000 F2400.00000
M204 S800
G1 X8.662 Y138.627 E0.48762
G1 X27.376 Y138.627 E0.48762
G1 X27.376 Y157.341 E0.48762
G1 X8.722 Y157.341 E0.48605
M204 S1250
G1 X8.244 Y157.759 F9000.000
M204 S800
G1 F1800.000
G1 X8.244 Y138.209 E0.50939
G1 X27.794 Y138.209 E0.50939
G1 X27.794 Y157.759 E0.50939
G1 X8.304 Y157.759 E0.50783
M204 S1250
G1 X8.348 Y157.372 F9000.000
G1 E-2.24000 F4200.00000
G1 F7200.000
G1 X8.299 Y156.113 E-0.91200
G1 E-0.04800 F4200.00000
G1 Z0.550 F9000.000
G1 X8.787 Y139.606
G1 Z0.350
G1 E3.20000 F2400.00000
M204 S1000
G1 F3958
G1 X9.453 Y138.940 E0.02478
G1 X10.050 Y138.940 E0.01571
G1 X8.975 Y140.014 E0.04000
G1 X8.975 Y140.611 E0.01571
G1 X10.647 Y138.940 E0.06222
G1 X11.244 Y138.940 E0.01571
G1 X8.975 Y141.208 E0.08445
G1 X8.975 Y141.805 E0.01571
G1 X11.841 Y138.940 E0.10667
G1 X12.438 Y138.940 E0.01571
G1 X8.975 Y142.402 E0.12889
G1 X8.975 Y142.999 E0.01571
G1 X13.035 Y138.940 E0.15112
G1 X13.632 Y138.940 E0.01571
G1 X8.975 Y143.596 E0.17334
G1 X8.975 Y144.193 E0.01571
G1 X14.229 Y138.940 E0.19556
G1 X14.826 Y138.940 E0.01571
G1 X8.975 Y144.790 E0.21778
G1 X8.975 Y145.387 E0.01571
G1 X15.423 Y138.940 E0.24001
G1 X16.019 Y138.940 E0.01571
G1 X8.975 Y145.984 E0.26223
G1 X8.975 Y146.581 E0.01571
G1 X16.616 Y138.940 E0.28445
G1 X17.213 Y138.940 E0.01571
G1 X8.975 Y147.178 E0.30668
G1 X8.975 Y147.775 E0.01571
G1 X17.810 Y138.940 E0.32890
G1 X18.407 Y138.940 E0.01571
G1 X8.975 Y148.372 E0.35112
G1 X8.975 Y148.969 E0.01571
G1 X19.004 Y138.940 E0.37335
G1 X19.601 Y138.940 E0.01571
G1 X8.975 Y149.566 E0.39557
G1 X8.975 Y150.163 E0.01571
G1 X20.198 Y138.940 E0.41779
G1 X20.795 Y138.940 E0.01571
G1 X8.975 Y150.760 E0.44001
G1 X8.975 Y151.357 E0.01571
G1 X21.392 Y138.940 E0.46224
G1 X21.989 Y138.940 E0.01571
G1 X8.975 Y151.953 E0.48446
G1 X8.975 Y152.550 E0.01571
G1 X22.586 Y138.940 E0.50668
G1 X23.183 Y138.940 E0.01571
G1 X8.975 Y153.147 E0.52891
G1 X8.975 Y153.744 E0.01571
G1 X23.780 Y138.940 E0.55113
G1 X24.377 Y138.940 E0.01571
G1 X8.975 Y154.341 E0.57335
G1 X8.975 Y154.938 E0.01571
G1 X24.974 Y138.940 E0.59558
G1 X25.571 Y138.940 E0.01571
G1 X8.975 Y155.535 E0.61780
G1 X8.975 Y156.132 E0.01571
G1 X26.168 Y138.940 E0.64002
G1 X26.765 Y138.940 E0.01571
G1 X8.975 Y156.729 E0.66224
G1 X8.975 Y157.028 E0.00786
G1 X9.274 Y157.028 E0.00786
G1 X27.063 Y139.238 E0.66225
G1 X27.063 Y139.835 E0.01571
G1 X9.871 Y157.028 E0.64003
G1 X10.468 Y157.028 E0.01571
G1 X27.063 Y140.432 E0.61780
G1 X27.063 Y141.029 E0.01571
G1 X11.065 Y157.028 E0.59558
G1 X11.662 Y157.028 E0.01571
G1 X27.063 Y141.626 E0.57336
G1 X27.063 Y142.223 E0.01571
G1 X12.259 Y157.028 E0.55113
G1 X12.856 Y157.028 E0.01571
G1 X27.063 Y142.820 E0.52891
G1 X27.063 Y143.417 E0.01571
G1 X13.453 Y157.028 E0.50669
G1 X14.049 Y157.028 E0.01571
G1 X27.063 Y144.014 E0.48447
G1 X27.063 Y144.611 E0.01571
G1 X14.646 Y157.028 E0.46224
G1 X15.243 Y157.028 E0.01571
G1 X27.063 Y145.208 E0.44002
G1 X27.063 Y145.805 E0.01571
G1 X15.840 Y157.028 E0.41780
G1 X16.437 Y157.028 E0.01571
G1 X27.063 Y146.402 E0.39557
G1 X27.063 Y146.999 E0.01571
G1 X17.034 Y157.028 E0.37335
G1 X17.631 Y157.028 E0.01571
G1 X27.063 Y147.596 E0.35113
G1 X27.063 Y148.193 E0.01571
G1 X18.228 Y157.028 E0.32890
G1 X18.825 Y157.028 E0.01571
G1 X27.063 Y148.790 E0.30668
G1 X27.063 Y149.387 E0.01571
G1 X19.422 Y157.028 E0.28446
G1 X20.019 Y157.028 E0.01571
G1 X27.063 Y149.983 E0.26224
G1 X27.063 Y150.580 E0.01571
G1 X20.616 Y157.028 E0.24001
G1 X21.213 Y157.028 E0.01571
G1 X27.063 Y151.177 E0.21779
G1 X27.063 Y151.774 E0.01571
G1 X21.810 Y157.028 E0.19557
G1 X22.407 Y157.028 E0.01571
G1 X27.063 Y152.371 E0.17334
G1 X27.063 Y152.968 E0.01571
G1 X23.004 Y157.028 E0.15112
G1 X23.601 Y157.028 E0.01571
G1 X27.063 Y153.565 E0.12890
G1 X27.063 Y154.162 E0.01571
G1 X24.198 Y157.028 E0.10668
G1 X24.795 Y157.028 E0.01571
G1 X27.063 Y154.759 E0.08445
G1 X27.063 Y155.356 E0.01571
G1 X25.392 Y157.028 E0.06223
G1 X25.988 Y157.028 E0.01571
G1 X27.063 Y155.953 E0.04001
G1 X27.063 Y156.550 E0.01571
G1 X26.397 Y157.216 E0.02478
M204 S1250
;BEFORE_LAYER_CHANGE
G92 E0.0
;0.5


G1 Z0.500 F9000.000
;AFTER_LAYER_CHANGE
;0.5
G1 E-3.20000 F4200.00000
G1 Z0.700 F9000.000
G1 X30.580 Y158.997
G1 Z0.500
G1 E3.20000 F2400.00000
G1 X30.089 Y159.801 E0.02279
G1 X29.665 Y160.192 E0.01396
G1 X29.169 Y160.487 E0.01396
G1 X28.622 Y160.671 E0.01396
G1 X28.049 Y160.738 E0.01396
G1 X7.933 Y160.737 E0.48649
G1 X7.006 Y160.545 E0.02289
G1 X6.202 Y160.053 E0.02279
G1 X5.811 Y159.629 E0.01396
G1 X5.516 Y159.133 E0.01396
G1 X5.332 Y158.586 E0.01396
G1 X5.265 Y158.013 E0.01396
G1 X5.266 Y137.898 E0.48649
G1 X5.458 Y136.971 E0.02289
G1 X5.950 Y136.167 E0.02279
G1 X6.357 Y135.788 E0.01346
G1 X6.829 Y135.500 E0.01336
G1 X7.353 Y135.311 E0.01346
G1 X7.904 Y135.232 E0.01346
G1 X28.023 Y135.230 E0.48659
G1 X29.025 Y135.420 E0.02465
G1 X29.885 Y135.958 E0.02455
G1 X30.492 Y136.771 E0.02455
G1 X30.764 Y137.754 E0.02465
G1 X30.772 Y158.070 E0.49134
G1 X30.593 Y158.938 E0.02144
G1 E-2.24000 F4200.00000
G1 F7200.000
G1 X30.089 Y159.801 E-0.55368
G1 X29.665 Y160.192 E-0.31978
G1 X29.605 Y160.228 E-0.03854
G1 E-0.04800 F4200.00000
G1 Z0.700 F9000.000
G1 X27.376 Y157.341
G1 Z0.500
G1 E3.20000 F2400.00000
M204 S800
G1 X8.662 Y157.341 E0.48762
G1 X8.662 Y138.627 E0.48762
G1 X27.376 Y138.627 E0.48762
G1 X27.376 Y157.281 E0.48605
M204 S1250
G1 X27.794 Y157.759 F9000.000
M204 S800
G1 F1800.000
G1 X8.244 Y157.759 E0.50939
G1 X8.244 Y138.209 E0.50939
G1 X27.794 Y138.209 E0.50939
G1 X27.794 Y157.699 E0.50783
M204 S1250
G1 X27.408 Y157.655 F9000.000
G1 E-2.24000 F4200.00000
G1 F7200.000
G1 X26.149 Y157.704 E-0.91200
G1 E-0.04800 F4200.00000
G1 Z0.700 F9000.000
G1 X9.641 Y157.216
G1 Z0.500
G1 E3.20000 F2400.00000
M204 S1000
G1 F3958
G1 X8.975 Y156.550 E0.02478
G1 X8.975 Y155.953 E0.01571
G1 X10.050 Y157.028 E0.04000
G1 X10.647 Y157.028 E0.01571
G1 X8.975 Y155.356 E0.06222
G1 X8.975 Y154.759 E0.01571
G1 X11.244 Y157.028 E0.08445
G1 X11.841 Y157.028 E0.01571
G1 X8.975 Y154.162 E0.10667
G1 X8.975 Y153.565 E0.01571
G1 X12.438 Y157.028 E0.12889
G1 X13.035 Y157.028 E0.01571
G1 X8.975 Y152.968 E0.15112
G1 X8.975 Y152.371 E0.01571
G1 X13.632 Y157.028 E0.17334
G1 X14.229 Y157.028 E0.01571
G1 X8.975 Y151.774 E0.19556
G1 X8.975 Y151.178 E0.01571
G1 X14.826 Y157.028 E0.21778
G1 X15.423 Y157.028 E0.01571
G1 X8.975 Y150.581 E0.24001
G1 X8.975 Y149.984 E0.01571
G1 X16.019 Y157.028 E0.26223
G1 X16.616 Y157.028 E0.01571
G1 X8.975 Y149.387 E0.28445
G1 X8.975 Y148.790 E0.01571
G1 X17.213 Y157.028 E0.30668
G1 X17.810 Y157.028 E0.01571
G1 X8.975 Y148.193 E0.32890
G1 X8.975 Y147.596 E0.01571
G1 X18.407 Y157.028 E0.35112
G1 X19.004 Y157.028 E0.01571
G1 X8.975 Y146.999 E0.37335
G1 X8.975 Y146.402 E0.01571
G1 X19.601 Y157.028 E0.39557
G1 X20.198 Y157.028 E0.01571
G1 X8.975 Y145.805 E0.41779
G1 X8.975 Y145.208 E0.01571
G1 X20.795 Y157.028 E0.44001
G1 X21.392 Y157.028 E0.01571
G1 X8.975 Y144.611 E0.46224
G1 X8.975 Y144.014 E0.01571
G1 X21.989 Y157.028 E0.48446
G1 X22.586 Y157.028 E0.01571
G1 X8.975 Y143.417 E0.50668
G1 X8.975 Y142.820 E0.01571
G1 X23.183 Y157.028 E0.52891
G1 X23.780 Y157.028 E0.01571
