; generated by PrusaSlicer 2.2.0-beta+win64 on 2020-02-25 at 07:33:16 UTC

; 

; external perimeters extrusion width = 0.45mm
; perimeters extrusion width = 0.45mm
; infill extrusion width = 0.45mm
; solid infill extrusion width = 0.45mm
; top infill extrusion width = 0.45mm
; support material extrusion width = 0.45mm
; first layer extrusion width = 0.45mm

M107 ; disable fan
M190 S95 ; set bed temperature and wait for it to be reached
M104 S235 ; set temperature
M104 S235 ; set temperature
M109 S235 ; set temperature and wait for it to be reached
M109 S235 ; set temperature and wait for it to be reached
G21 ; set units to millimeters
G90 ; use absolute coordinates
M83 ; use relative distances for extrusion
;G91
;G1 Z5 F4000
;G90
;G1 Y100 F14000
;G1 X630 F14000
;G1 X650 F5000
G1 E-1.00000 F2700.00000 ; retract
G1 Z0.400 F10800.000 ; lift Z
G1 X288.977 Y283.698 ; move to first skirt point
G1 Z0.150 ; restore layer Z
G1 E1.00000 F2700.00000 ; unretract
G1 F1500.000
G1 X289.724 Y283.025 E0.02620 ; skirt
G1 X290.543 Y282.441 E0.02620 ; skirt
G1 X293.472 Y280.714 E0.08860 ; skirt
G1 X294.484 Y280.227 E0.02926 ; skirt
G1 X296.230 Y279.721 E0.04737 ; skirt
G1 X298.870 Y279.300 E0.06966 ; skirt
G1 X300.020 Y279.226 E0.03002 ; skirt
G1 X301.849 Y279.420 E0.04794 ; skirt
G1 X305.077 Y280.126 E0.08609 ; skirt
G1 X306.417 Y280.585 E0.03689 ; skirt
G1 X308.018 Y281.491 E0.04794 ; skirt
G1 X310.697 Y283.480 E0.08693 ; skirt
G1 X311.557 Y284.246 E0.03002 ; skirt
G1 X312.710 Y285.689 E0.04813 ; skirt
G1 X314.113 Y287.941 E0.06913 ; skirt
G1 X314.682 Y289.133 E0.03441 ; skirt
G1 X315.071 Y290.410 E0.03479 ; skirt
G1 X315.680 Y293.606 E0.08476 ; skirt
G1 X315.833 Y295.249 E0.04299 ; skirt
G1 X315.751 Y296.442 E0.03117 ; skirt
G1 X313.786 Y310.179 E0.36158 ; skirt
G1 X313.223 Y311.969 E0.04889 ; skirt
G1 X312.003 Y314.265 E0.06774 ; skirt
G1 X311.060 Y315.519 E0.04089 ; skirt
G1 X309.208 Y317.367 E0.06817 ; skirt
G1 X308.307 Y318.120 E0.03059 ; skirt
G1 X307.315 Y318.747 E0.03059 ; skirt
G1 X305.549 Y319.650 E0.05166 ; skirt
G1 X304.293 Y320.102 E0.03479 ; skirt
G1 X301.363 Y320.668 E0.07776 ; skirt
G1 X299.995 Y320.774 E0.03575 ; skirt
G1 X298.628 Y320.667 E0.03575 ; skirt
G1 X295.697 Y320.099 E0.07778 ; skirt
G1 X294.441 Y319.645 E0.03479 ; skirt
G1 X292.678 Y318.743 E0.05161 ; skirt
G1 X291.686 Y318.115 E0.03059 ; skirt
G1 X290.786 Y317.361 E0.03059 ; skirt
G1 X288.928 Y315.506 E0.06840 ; skirt
G1 X287.987 Y314.251 E0.04089 ; skirt
G1 X286.774 Y311.963 E0.06746 ; skirt
G1 X286.214 Y310.180 E0.04870 ; skirt
G1 X284.248 Y296.441 E0.36163 ; skirt
G1 X284.167 Y295.240 E0.03136 ; skirt
G1 X284.271 Y293.887 E0.03536 ; skirt
G1 X284.881 Y290.642 E0.08603 ; skirt
G1 X285.397 Y288.937 E0.04642 ; skirt
G1 X286.257 Y287.352 E0.04699 ; skirt
G1 X288.168 Y284.638 E0.08649 ; skirt
G1 X288.938 Y283.743 E0.03075 ; skirt
G1 X289.254 Y284.014 F10800.000 ; move to first skirt point
G1 F1500.000
G1 X289.986 Y283.350 E0.02577 ; skirt
G1 X290.768 Y282.793 E0.02501 ; skirt
G1 X293.674 Y281.079 E0.08790 ; skirt
G1 X294.642 Y280.613 E0.02800 ; skirt
G1 X296.312 Y280.130 E0.04530 ; skirt
G1 X298.916 Y279.716 E0.06869 ; skirt
G1 X300.016 Y279.644 E0.02874 ; skirt
G1 X301.760 Y279.828 E0.04567 ; skirt
G1 X304.961 Y280.527 E0.08537 ; skirt
G1 X306.248 Y280.967 E0.03545 ; skirt
G1 X307.774 Y281.829 E0.04567 ; skirt
G1 X310.432 Y283.804 E0.08627 ; skirt
G1 X311.257 Y284.536 E0.02874 ; skirt
G1 X312.359 Y285.917 E0.04605 ; skirt
G1 X313.747 Y288.144 E0.06836 ; skirt
G1 X314.294 Y289.287 E0.03303 ; skirt
G1 X314.666 Y290.514 E0.03340 ; skirt
G1 X315.270 Y293.683 E0.08407 ; skirt
G1 X315.415 Y295.244 E0.04084 ; skirt
G1 X315.337 Y296.387 E0.02986 ; skirt
G1 X313.378 Y310.087 E0.36059 ; skirt
G1 X312.841 Y311.801 E0.04679 ; skirt
G1 X311.672 Y314.007 E0.06505 ; skirt
G1 X310.755 Y315.234 E0.03991 ; skirt
G1 X308.938 Y317.047 E0.06689 ; skirt
G1 X308.077 Y317.771 E0.02930 ; skirt
G1 X307.127 Y318.373 E0.02930 ; skirt
G1 X305.394 Y319.261 E0.05075 ; skirt
G1 X304.188 Y319.697 E0.03340 ; skirt
G1 X301.308 Y320.254 E0.07644 ; skirt
G1 X299.994 Y320.356 E0.03433 ; skirt
G1 X298.688 Y320.253 E0.03414 ; skirt
G1 X295.805 Y319.695 E0.07652 ; skirt
G1 X294.606 Y319.261 E0.03321 ; skirt
G1 X292.874 Y318.374 E0.05070 ; skirt
G1 X291.925 Y317.772 E0.02930 ; skirt
G1 X291.064 Y317.049 E0.02930 ; skirt
G1 X289.236 Y315.223 E0.06731 ; skirt
G1 X288.324 Y314.001 E0.03973 ; skirt
G1 X287.156 Y311.794 E0.06506 ; skirt
G1 X286.620 Y310.080 E0.04679 ; skirt
G1 X284.663 Y296.390 E0.36034 ; skirt
G1 X284.585 Y295.240 E0.03005 ; skirt
G1 X284.686 Y293.940 E0.03396 ; skirt
G1 X285.291 Y290.721 E0.08535 ; skirt
G1 X285.782 Y289.098 E0.04419 ; skirt
G1 X286.601 Y287.588 E0.04475 ; skirt
G1 X288.498 Y284.894 E0.08585 ; skirt
G1 X289.215 Y284.060 E0.02866 ; skirt
; printing object 3445239ff05f4ab79881c8df0d3934fc040543fdbe9f4e3ebff9221e547f9b41.stl id:0 copy 0
G1 F8640.000
G1 X289.986 Y283.350 E-0.31125 ; wipe and retract
G1 X290.768 Y282.793 E-0.28499 ; wipe and retract
G1 X291.795 Y282.188 E-0.35375 ; wipe and retract
G1 E-0.05000 F2700.00000 ; retract
G1 Z0.550 F10800.000 ; lift Z
G1 X302.503 Y308.721 ; move to first perimeter point
G1 Z0.150 ; restore layer Z
G1 E1.00000 F2700.00000 ; unretract
G1 F1500.000
G1 X300.313 Y309.811 E0.06377 ; perimeter
G1 X298.012 Y309.157 E0.06232 ; perimeter
G1 X296.905 Y307.691 E0.04785 ; perimeter
G1 X296.652 Y306.337 E0.03591 ; perimeter
G1 X297.497 Y304.156 E0.06092 ; perimeter
G1 X299.689 Y303.065 E0.06381 ; perimeter
G1 X301.998 Y303.729 E0.06259 ; perimeter
G1 X303.095 Y305.186 E0.04754 ; perimeter
G1 X303.348 Y306.540 E0.03588 ; perimeter
G1 X302.525 Y308.665 E0.05936 ; perimeter
G1 X302.172 Y308.419 F10800.000 ; move to first perimeter point
G1 F1500.000
G1 X300.271 Y309.365 E0.05533 ; perimeter
G1 X298.261 Y308.793 E0.05446 ; perimeter
G1 X297.298 Y307.518 E0.04164 ; perimeter
G1 X297.085 Y306.377 E0.03025 ; perimeter
G1 X297.828 Y304.458 E0.05361 ; perimeter
G1 X299.730 Y303.511 E0.05536 ; perimeter
G1 X301.748 Y304.092 E0.05472 ; perimeter
G1 X302.702 Y305.360 E0.04135 ; perimeter
G1 X302.915 Y306.500 E0.03024 ; perimeter
G1 X302.194 Y308.363 E0.05205 ; perimeter
G1 X301.841 Y308.117 F10800.000 ; move to first perimeter point
G1 F1500.000
G1 X300.230 Y308.919 E0.04690 ; perimeter
G1 X298.510 Y308.430 E0.04659 ; perimeter
G1 X297.690 Y307.345 E0.03543 ; perimeter
G1 X297.517 Y306.417 E0.02459 ; perimeter
G1 X298.159 Y304.760 E0.04630 ; perimeter
G1 X299.770 Y303.958 E0.04691 ; perimeter
G1 X301.498 Y304.455 E0.04684 ; perimeter
G1 X302.310 Y305.533 E0.03516 ; perimeter
G1 X302.483 Y306.460 E0.02459 ; perimeter
G1 X301.863 Y308.061 E0.04473 ; perimeter
G1 X301.939 Y308.505 F10800.000 ; move inwards before travel
G1 F8640.000
G1 X300.230 Y308.919 E-0.54765 ; wipe and retract
G1 X298.926 Y308.548 E-0.40235 ; wipe and retract
G1 E-0.05000 F2700.00000 ; retract
G1 Z0.550 F10800.000 ; lift Z
G1 X300.096 Y298.655 ; move to first perimeter point
G1 Z0.150 ; restore layer Z
G1 E1.00000 F2700.00000 ; unretract
G1 F1500.000
G1 X298.729 Y298.414 E0.03616 ; perimeter
G1 X297.208 Y297.351 E0.04836 ; perimeter
G1 X296.371 Y295.062 E0.06349 ; perimeter
G1 X297.186 Y292.824 E0.06206 ; perimeter
G1 X298.249 Y291.933 E0.03615 ; perimeter
G1 X300.042 Y291.451 E0.04836 ; perimeter
G1 X302.237 Y292.247 E0.06083 ; perimeter
G1 X303.129 Y293.310 E0.03617 ; perimeter
G1 X303.585 Y295.014 E0.04597 ; perimeter
G1 X303.353 Y296.332 E0.03487 ; perimeter
G1 X302.289 Y297.854 E0.04838 ; perimeter
G1 X300.152 Y298.635 E0.05928 ; perimeter
G1 X300.058 Y298.225 F10800.000 ; move to first perimeter point
G1 F1500.000
G1 X298.893 Y298.019 E0.03082 ; perimeter
G1 X297.555 Y297.084 E0.04253 ; perimeter
G1 X296.816 Y295.062 E0.05609 ; perimeter
G1 X297.540 Y293.072 E0.05517 ; perimeter
G1 X298.447 Y292.312 E0.03082 ; perimeter
G1 X300.023 Y291.889 E0.04253 ; perimeter
G1 X301.989 Y292.601 E0.05448 ; perimeter
G1 X302.749 Y293.508 E0.03083 ; perimeter
G1 X303.158 Y295.033 E0.04114 ; perimeter
G1 X302.957 Y296.169 E0.03005 ; perimeter
G1 X302.022 Y297.507 E0.04254 ; perimeter
G1 X300.114 Y298.204 E0.05293 ; perimeter
G1 X300.020 Y297.794 F10800.000 ; move to first perimeter point
G1 F1500.000
G1 X299.056 Y297.623 E0.02549 ; perimeter
G1 X297.902 Y296.817 E0.03669 ; perimeter
G1 X297.260 Y295.062 E0.04869 ; perimeter
G1 X297.894 Y293.320 E0.04828 ; perimeter
G1 X298.644 Y292.692 E0.02550 ; perimeter
G1 X300.004 Y292.326 E0.03669 ; perimeter
G1 X301.741 Y292.956 E0.04813 ; perimeter
G1 X302.370 Y293.705 E0.02549 ; perimeter
G1 X302.730 Y295.051 E0.03631 ; perimeter
G1 X302.562 Y296.005 E0.02523 ; perimeter
G1 X301.755 Y297.159 E0.03670 ; perimeter
G1 X300.076 Y297.773 E0.04657 ; perimeter
G1 X299.851 Y298.156 F10800.000 ; move inwards before travel
G1 F8640.000
G1 X299.056 Y297.623 E-0.30598 ; wipe and retract
G1 X297.902 Y296.817 E-0.41804 ; wipe and retract
G1 X297.641 Y296.102 E-0.22597 ; wipe and retract
G1 E-0.05000 F2700.00000 ; retract
G1 Z0.550 F10800.000 ; lift Z
G1 X295.990 Y290.714 ; move to first perimeter point
G1 Z0.150 ; restore layer Z
G1 E1.00000 F2700.00000 ; unretract
G1 F1500.000
G1 X298.168 Y289.431 E0.06587 ; perimeter
G1 X299.982 Y289.141 E0.04785 ; perimeter
G1 X302.443 Y289.674 E0.06562 ; perimeter
G1 X304.473 Y291.182 E0.06590 ; perimeter
G1 X305.443 Y292.729 E0.04758 ; perimeter
G1 X305.923 Y295.267 E0.06729 ; perimeter
G1 X304.100 Y308.102 E0.33778 ; perimeter
G1 X303.638 Y308.962 E0.02545 ; perimeter
G1 X302.472 Y310.112 E0.04268 ; perimeter
G1 X301.588 Y310.572 E0.02594 ; perimeter
G1 X300.000 Y310.861 E0.04207 ; perimeter
G1 X298.412 Y310.572 E0.04207 ; perimeter
G1 X297.529 Y310.113 E0.02593 ; perimeter
G1 X296.357 Y308.955 E0.04292 ; perimeter
G1 X295.900 Y308.102 E0.02521 ; perimeter
G1 X294.077 Y295.267 E0.33780 ; perimeter
G1 X294.552 Y292.758 E0.06652 ; perimeter
G1 X295.955 Y290.763 E0.06356 ; perimeter
G1 X295.700 Y290.400 F10800.000 ; move to first perimeter point
G1 F1500.000
G1 X298.024 Y289.031 E0.07028 ; perimeter
G1 X299.993 Y288.716 E0.05196 ; perimeter
G1 X302.619 Y289.285 E0.07001 ; perimeter
G1 X304.786 Y290.893 E0.07030 ; perimeter
G1 X305.838 Y292.574 E0.05168 ; perimeter
G1 X306.346 Y295.257 E0.07114 ; perimeter
G1 X304.503 Y308.234 E0.34152 ; perimeter
G1 X303.976 Y309.215 E0.02903 ; perimeter
G1 X302.720 Y310.454 E0.04596 ; perimeter
G1 X301.725 Y310.972 E0.02922 ; perimeter
G1 X300.000 Y311.285 E0.04569 ; perimeter
G1 X298.275 Y310.972 E0.04569 ; perimeter
G1 X297.280 Y310.454 E0.02922 ; perimeter
G1 X296.018 Y309.208 E0.04620 ; perimeter
G1 X295.497 Y308.234 E0.02878 ; perimeter
G1 X293.654 Y295.257 E0.34153 ; perimeter
G1 X294.158 Y292.592 E0.07068 ; perimeter
G1 X295.665 Y290.449 E0.06826 ; perimeter
G1 X295.410 Y290.085 F10800.000 ; move to first perimeter point
G1 F1500.000
G1 X297.880 Y288.631 E0.07469 ; perimeter
G1 X300.005 Y288.291 E0.05607 ; perimeter
G1 X302.796 Y288.896 E0.07441 ; perimeter
G1 X305.098 Y290.605 E0.07470 ; perimeter
G1 X306.234 Y292.419 E0.05578 ; perimeter
G1 X306.770 Y295.247 E0.07499 ; perimeter
G1 X304.907 Y308.366 E0.34526 ; perimeter
G1 X304.314 Y309.469 E0.03260 ; perimeter
G1 X302.969 Y310.796 E0.04924 ; perimeter
G1 X301.862 Y311.371 E0.03251 ; perimeter
G1 X300.000 Y311.710 E0.04931 ; perimeter
G1 X298.138 Y311.371 E0.04931 ; perimeter
G1 X297.031 Y310.796 E0.03251 ; perimeter
G1 X295.680 Y309.461 E0.04949 ; perimeter
G1 X295.093 Y308.366 E0.03235 ; perimeter
G1 X293.230 Y295.247 E0.34526 ; perimeter
G1 X293.765 Y292.425 E0.07483 ; perimeter
G1 X295.375 Y290.134 E0.07297 ; perimeter
G1 X295.792 Y290.204 F10800.000 ; move inwards before travel
G1 F8640.000
G1 X297.880 Y288.631 E-0.86730 ; wipe and retract
G1 X298.155 Y288.587 E-0.08270 ; wipe and retract
G1 E-0.05000 F2700.00000 ; retract
G1 Z0.550 F10800.000 ; lift Z
G1 X299.253 Y289.363 ; move to first infill point
G1 Z0.150 ; restore layer Z
G1 E1.00000 F2700.00000 ; unretract
G1 F1500.000
G1 X301.592 Y291.702 E0.08700 ; infill
G1 X300.656 Y291.363 E0.02618 ; infill
G1 X298.903 Y289.610 E0.06522 ; infill
G1 X298.389 Y289.692 E0.01370 ; infill
G1 X299.887 Y291.190 E0.05573 ; infill
G1 X299.417 Y291.316 E0.01281 ; infill
G1 X297.981 Y289.881 E0.05341 ; infill
G1 X297.606 Y290.102 E0.01146 ; infill
G1 X298.946 Y291.442 E0.04988 ; infill
G1 X298.476 Y291.569 E0.01281 ; infill
G1 X297.230 Y290.323 E0.04635 ; infill
G1 X296.855 Y290.544 E0.01146 ; infill
G1 X298.038 Y291.728 E0.04404 ; infill
G1 X297.714 Y292.000 E0.01114 ; infill
G1 X296.479 Y290.765 E0.04593 ; infill
G1 X296.192 Y290.934 E0.00875 ; infill
G1 X296.134 Y291.016 E0.00266 ; infill
G1 X297.389 Y292.272 E0.04670 ; infill
G1 X297.065 Y292.544 E0.01114 ; infill
G1 X295.888 Y291.367 E0.04379 ; infill
G1 X295.642 Y291.717 E0.01126 ; infill
G1 X296.841 Y292.916 E0.04462 ; infill
G1 X296.682 Y293.354 E0.01224 ; infill
G1 X295.395 Y292.067 E0.04786 ; infill
G1 X295.149 Y292.418 E0.01126 ; infill
G1 X296.523 Y293.791 E0.05110 ; infill
G1 X296.363 Y294.228 E0.01224 ; infill
G1 X294.903 Y292.768 E0.05434 ; infill
G1 X294.828 Y292.875 E0.00344 ; infill
G1 X294.762 Y293.223 E0.00933 ; infill
G1 X296.204 Y294.666 E0.05367 ; infill
G1 X296.060 Y295.062 E0.01111 ; infill
G1 X296.091 Y295.150 E0.00244 ; infill
G1 X294.667 Y293.725 E0.05301 ; infill
G1 X294.572 Y294.226 E0.01343 ; infill
G1 X296.435 Y296.090 E0.06933 ; infill
G1 X296.779 Y297.030 E0.02634 ; infill
G1 X294.477 Y294.728 E0.08566 ; infill
G1 X294.382 Y295.229 E0.01343 ; infill
G1 X304.234 Y305.081 E0.36651 ; infill
G1 X304.308 Y304.559 E0.01388 ; infill
G1 X298.034 Y298.285 E0.23340 ; infill
G1 X298.614 Y298.691 E0.01863 ; infill
G1 X299.127 Y298.781 E0.01369 ; infill
G1 X304.382 Y304.037 E0.19551 ; infill
G1 X304.456 Y303.514 E0.01388 ; infill
G1 X299.851 Y298.909 E0.17132 ; infill
G1 X300.122 Y298.957 E0.00724 ; infill
G1 X300.396 Y298.857 E0.00766 ; infill
G1 X304.530 Y302.992 E0.15382 ; infill
G1 X304.605 Y302.470 E0.01388 ; infill
G1 X300.833 Y298.698 E0.14033 ; infill
G1 X301.269 Y298.538 E0.01224 ; infill
G1 X304.679 Y301.947 E0.12683 ; infill
G1 X304.753 Y301.425 E0.01388 ; infill
G1 X301.706 Y298.378 E0.11334 ; infill
G1 X302.143 Y298.219 E0.01224 ; infill
G1 X304.827 Y300.903 E0.09985 ; infill
G1 X304.901 Y300.380 E0.01388 ; infill
G1 X302.534 Y298.013 E0.08805 ; infill
G1 X302.780 Y297.662 E0.01127 ; infill
G1 X304.976 Y299.858 E0.08168 ; infill
G1 X305.050 Y299.335 E0.01388 ; infill
G1 X303.025 Y297.311 E0.07531 ; infill
G1 X303.271 Y296.960 E0.01127 ; infill
G1 X305.124 Y298.813 E0.06894 ; infill
G1 X305.198 Y298.291 E0.01388 ; infill
G1 X303.516 Y296.609 E0.06257 ; infill
G1 X303.630 Y296.447 E0.00521 ; infill
G1 X303.678 Y296.174 E0.00729 ; infill
G1 X305.272 Y297.768 E0.05932 ; infill
G1 X305.346 Y297.246 E0.01388 ; infill
G1 X303.767 Y295.667 E0.05875 ; infill
G1 X303.857 Y295.160 E0.01355 ; infill
G1 X305.421 Y296.724 E0.05818 ; infill
G1 X305.495 Y296.201 E0.01388 ; infill
G1 X303.735 Y294.441 E0.06548 ; infill
G1 X303.516 Y293.626 E0.02219 ; infill
G1 X305.569 Y295.679 E0.07636 ; infill
G1 X305.627 Y295.274 E0.01077 ; infill
G1 X305.595 Y295.109 E0.00441 ; infill
G1 X299.932 Y289.445 E0.21070 ; infill
G1 X299.973 Y289.438 E0.00111 ; infill
G1 X300.673 Y289.590 E0.01884 ; infill
G1 X305.456 Y294.373 E0.17793 ; infill
G1 X305.317 Y293.637 E0.01970 ; infill
G1 X301.435 Y289.755 E0.14441 ; infill
G1 X302.197 Y289.920 E0.02050 ; infill
G1 X305.413 Y293.137 E0.11968 ; infill
G1 F8640.000
G1 X303.151 Y290.875 E-0.95000 ; wipe and retract
G1 E-0.05000 F2700.00000 ; retract
G1 Z0.550 F10800.000 ; lift Z
G1 X304.326 Y305.770 ; move to first infill point
G1 Z0.150 ; restore layer Z
G1 E1.00000 F2700.00000 ; unretract
G1 F1500.000
G1 X294.464 Y295.908 E0.36690 ; infill
G1 X294.562 Y296.603 E0.01847 ; infill
G1 X301.136 Y303.177 E0.24455 ; infill
G1 X300.298 Y302.936 E0.02292 ; infill
G1 X294.661 Y297.298 E0.20972 ; infill
G1 X294.760 Y297.994 E0.01847 ; infill
G1 X299.566 Y302.799 E0.17879 ; infill
G1 X299.167 Y302.998 E0.01170 ; infill
G1 X294.858 Y298.689 E0.16030 ; infill
