; generated by PrusaSlicer 2.2.0-rc4+win64 on 2020-03-18 at 11:38:47 UTC

; 

; external perimeters extrusion width = 0.45mm
; perimeters extrusion width = 0.45mm
; infill extrusion width = 0.45mm
; solid infill extrusion width = 0.45mm
; top infill extrusion width = 0.45mm
; support material extrusion width = 0.45mm
; first layer extrusion width = 0.45mm

M107 ; disable fan
M190 S95 ; set bed temperature and wait for it to be reached
M104 S235 ; set temperature
M104 S235 ; set temperature
M109 S235 ; set temperature and wait for it to be reached
M109 S235 ; set temperature and wait for it to be reached
G21 ; set units to millimeters
G90 ; use absolute coordinates
M83 ; use relative distances for extrusion
;G91
;G1 Z5 F4000
;G90
;G1 Y100 F14000
;G1 X630 F14000
;G1 X650 F5000
G1 E-1.00000 F2700.00000 ; retract
G1 Z0.400 F10800.000 ; lift Z
G1 X288.229 Y289.357 ; move to first skirt point
G1 Z0.200 ; restore layer Z
G1 E1.00000 F2700.00000 ; unretract
G1 F1500.000
G1 X289.529 Y288.089 E0.06146 ; skirt
G1 X291.062 Y287.115 E0.06146 ; skirt
G1 X292.761 Y286.475 E0.06146 ; skirt
G1 X293.767 Y286.272 E0.03474 ; skirt
G1 X294.790 Y286.188 E0.03474 ; skirt
G1 X305.007 Y286.186 E0.34585 ; skirt
G1 X306.373 Y286.293 E0.04638 ; skirt
G1 X307.706 Y286.612 E0.04638 ; skirt
G1 X308.973 Y287.132 E0.04638 ; skirt
G1 X310.139 Y287.839 E0.04613 ; skirt
G1 X311.187 Y288.722 E0.04638 ; skirt
G1 X312.081 Y289.751 E0.04613 ; skirt
G1 X312.809 Y290.911 E0.04638 ; skirt
G1 X313.348 Y292.171 E0.04638 ; skirt
G1 X313.670 Y293.412 E0.04341 ; skirt
G1 X313.809 Y294.687 E0.04341 ; skirt
G1 X313.809 Y305.293 E0.35900 ; skirt
G1 X313.720 Y306.286 E0.03375 ; skirt
G1 X313.517 Y307.270 E0.03399 ; skirt
G1 X313.203 Y308.224 E0.03399 ; skirt
G1 X312.783 Y309.136 E0.03399 ; skirt
G1 X312.258 Y310.001 E0.03424 ; skirt
G1 X311.637 Y310.800 E0.03424 ; skirt
G1 X310.929 Y311.522 E0.03424 ; skirt
G1 X310.143 Y312.158 E0.03424 ; skirt
G1 X309.295 Y312.697 E0.03399 ; skirt
G1 X308.385 Y313.138 E0.03424 ; skirt
G1 X307.430 Y313.473 E0.03424 ; skirt
G1 X306.443 Y313.695 E0.03424 ; skirt
G1 X305.078 Y313.814 E0.04638 ; skirt
G1 X294.487 Y313.799 E0.35850 ; skirt
G1 X293.540 Y313.692 E0.03226 ; skirt
G1 X292.617 Y313.486 E0.03201 ; skirt
G1 X291.721 Y313.182 E0.03201 ; skirt
G1 X290.864 Y312.783 E0.03201 ; skirt
G1 X289.999 Y312.258 E0.03424 ; skirt
G1 X289.200 Y311.637 E0.03424 ; skirt
G1 X288.478 Y310.929 E0.03424 ; skirt
G1 X287.842 Y310.143 E0.03424 ; skirt
G1 X287.303 Y309.295 E0.03399 ; skirt
G1 X286.862 Y308.385 E0.03424 ; skirt
G1 X286.527 Y307.430 E0.03424 ; skirt
G1 X286.305 Y306.443 E0.03424 ; skirt
G1 X286.186 Y305.078 E0.04638 ; skirt
G1 X286.201 Y294.487 E0.35850 ; skirt
G1 X286.308 Y293.540 E0.03226 ; skirt
G1 X286.514 Y292.617 E0.03201 ; skirt
G1 X286.818 Y291.721 E0.03201 ; skirt
G1 X287.217 Y290.864 E0.03201 ; skirt
G1 X288.196 Y289.406 E0.05943 ; skirt
G1 X288.536 Y289.640 F10800.000 ; move to first skirt point
G1 F1500.000
G1 X288.595 Y289.554 E0.00352 ; skirt
G1 X289.846 Y288.358 E0.05857 ; skirt
G1 X291.315 Y287.444 E0.05857 ; skirt
G1 X292.940 Y286.849 E0.05857 ; skirt
G1 X293.875 Y286.669 E0.03223 ; skirt
G1 X294.817 Y286.595 E0.03199 ; skirt
G1 X305.007 Y286.593 E0.34492 ; skirt
G1 X306.320 Y286.697 E0.04457 ; skirt
G1 X307.593 Y287.003 E0.04433 ; skirt
G1 X308.804 Y287.503 E0.04433 ; skirt
G1 X309.928 Y288.188 E0.04457 ; skirt
G1 X310.931 Y289.041 E0.04457 ; skirt
G1 X311.784 Y290.035 E0.04433 ; skirt
G1 X312.476 Y291.155 E0.04457 ; skirt
G1 X312.985 Y292.369 E0.04457 ; skirt
G1 X313.278 Y293.535 E0.04070 ; skirt
G1 X313.403 Y294.731 E0.04070 ; skirt
G1 X313.402 Y305.301 E0.35777 ; skirt
G1 X313.312 Y306.263 E0.03272 ; skirt
G1 X313.110 Y307.216 E0.03296 ; skirt
G1 X312.799 Y308.138 E0.03296 ; skirt
G1 X312.388 Y309.013 E0.03272 ; skirt
G1 X311.882 Y309.828 E0.03247 ; skirt
G1 X311.283 Y310.586 E0.03272 ; skirt
G1 X310.600 Y311.271 E0.03272 ; skirt
G1 X309.849 Y311.868 E0.03247 ; skirt
G1 X309.035 Y312.375 E0.03247 ; skirt
G1 X308.162 Y312.790 E0.03272 ; skirt
G1 X307.247 Y313.101 E0.03272 ; skirt
G1 X306.309 Y313.304 E0.03247 ; skirt
G1 X305.061 Y313.407 E0.04239 ; skirt
G1 X294.499 Y313.392 E0.35752 ; skirt
G1 X293.581 Y313.287 E0.03126 ; skirt
G1 X292.688 Y313.083 E0.03102 ; skirt
G1 X291.815 Y312.780 E0.03126 ; skirt
G1 X290.987 Y312.388 E0.03102 ; skirt
G1 X290.172 Y311.882 E0.03247 ; skirt
G1 X289.414 Y311.283 E0.03272 ; skirt
G1 X288.729 Y310.600 E0.03272 ; skirt
G1 X288.132 Y309.849 E0.03247 ; skirt
G1 X287.625 Y309.035 E0.03247 ; skirt
G1 X287.210 Y308.162 E0.03272 ; skirt
G1 X286.899 Y307.247 E0.03272 ; skirt
G1 X286.696 Y306.309 E0.03247 ; skirt
G1 X286.593 Y305.061 E0.04239 ; skirt
G1 X286.608 Y294.499 E0.35752 ; skirt
G1 X286.713 Y293.581 E0.03126 ; skirt
G1 X286.917 Y292.688 E0.03102 ; skirt
G1 X287.220 Y291.815 E0.03126 ; skirt
G1 X287.612 Y290.987 E0.03102 ; skirt
G1 X288.502 Y289.689 E0.05327 ; skirt
; printing object f8d50610f5b34a899eb56b710450de3e8f49c4bad99a4d589ec421870a5482d2.stl id:0 copy 0
G1 F8640.000
G1 X288.595 Y289.554 E-0.04867 ; wipe and retract
G1 X289.846 Y288.358 E-0.51373 ; wipe and retract
G1 X290.954 Y287.668 E-0.38760 ; wipe and retract
G1 E-0.05000 F2700.00000 ; retract
G1 Z0.600 F10800.000 ; lift Z
G1 X303.961 Y303.961 ; move to first perimeter point
G1 Z0.200 ; restore layer Z
G1 E1.00000 F2700.00000 ; unretract
G1 F1500.000
G1 X296.039 Y303.961 E0.26814 ; perimeter
G1 X296.039 Y296.039 E0.26814 ; perimeter
G1 X303.961 Y296.039 E0.26814 ; perimeter
G1 X303.961 Y303.901 E0.26611 ; perimeter
G1 X304.368 Y304.368 F10800.000 ; move to first perimeter point
G1 F1500.000
G1 X295.632 Y304.368 E0.29570 ; perimeter
G1 X295.632 Y295.632 E0.29570 ; perimeter
G1 X304.368 Y295.632 E0.29570 ; perimeter
G1 X304.368 Y304.308 E0.29367 ; perimeter
G1 X304.775 Y304.775 F10800.000 ; move to first perimeter point
G1 F1500.000
G1 X295.225 Y304.775 E0.32326 ; perimeter
G1 X295.225 Y295.225 E0.32326 ; perimeter
G1 X304.775 Y295.225 E0.32326 ; perimeter
G1 X304.775 Y304.715 E0.32123 ; perimeter
G1 X304.389 Y304.671 F10800.000 ; move inwards before travel
G1 F8640.000
G1 X301.575 Y304.735 E-0.95000 ; wipe and retract
G1 E-0.05000 F2700.00000 ; retract
G1 Z0.600 F10800.000 ; lift Z
G1 X296.995 Y303.859 ; move to first infill point
G1 Z0.200 ; restore layer Z
G1 E1.00000 F2700.00000 ; unretract
G1 F1500.000
G1 X296.324 Y303.188 E0.03331 ; infill
G1 X296.324 Y302.591 E0.02094 ; infill
G1 X297.409 Y303.676 E0.05384 ; infill
G1 X298.006 Y303.676 E0.02094 ; infill
G1 X296.324 Y301.994 E0.08346 ; infill
G1 X296.324 Y301.397 E0.02094 ; infill
G1 X298.603 Y303.676 E0.11308 ; infill
G1 X299.200 Y303.676 E0.02094 ; infill
G1 X296.324 Y300.800 E0.14270 ; infill
G1 X296.324 Y300.204 E0.02094 ; infill
G1 X299.796 Y303.676 E0.17232 ; infill
G1 X300.393 Y303.676 E0.02094 ; infill
G1 X296.324 Y299.607 E0.20194 ; infill
G1 X296.324 Y299.010 E0.02094 ; infill
G1 X300.990 Y303.676 E0.23156 ; infill
G1 X301.587 Y303.676 E0.02094 ; infill
G1 X296.324 Y298.413 E0.26118 ; infill
G1 X296.324 Y297.816 E0.02094 ; infill
G1 X302.184 Y303.676 E0.29080 ; infill
G1 X302.781 Y303.676 E0.02094 ; infill
G1 X296.324 Y297.219 E0.32042 ; infill
G1 X296.324 Y296.623 E0.02094 ; infill
G1 X303.377 Y303.676 E0.35004 ; infill
G1 X303.676 Y303.676 E0.01047 ; infill
G1 X303.676 Y303.378 E0.01047 ; infill
G1 X296.622 Y296.324 E0.35004 ; infill
G1 X297.219 Y296.324 E0.02094 ; infill
G1 X303.676 Y302.781 E0.32042 ; infill
G1 X303.676 Y302.184 E0.02094 ; infill
G1 X297.816 Y296.324 E0.29080 ; infill
G1 X298.413 Y296.324 E0.02094 ; infill
G1 X303.676 Y301.587 E0.26118 ; infill
G1 X303.676 Y300.990 E0.02094 ; infill
G1 X299.010 Y296.324 E0.23157 ; infill
G1 X299.607 Y296.324 E0.02094 ; infill
G1 X303.676 Y300.393 E0.20195 ; infill
G1 X303.676 Y299.797 E0.02094 ; infill
G1 X300.203 Y296.324 E0.17233 ; infill
G1 X300.800 Y296.324 E0.02094 ; infill
G1 X303.676 Y299.200 E0.14271 ; infill
G1 X303.676 Y298.603 E0.02094 ; infill
G1 X301.397 Y296.324 E0.11309 ; infill
G1 X301.994 Y296.324 E0.02094 ; infill
G1 X303.676 Y298.006 E0.08347 ; infill
G1 X303.676 Y297.409 E0.02094 ; infill
G1 X302.591 Y296.324 E0.05385 ; infill
G1 X303.188 Y296.324 E0.02094 ; infill
G1 X303.859 Y296.996 E0.03332 ; infill
; stop printing object f8d50610f5b34a899eb56b710450de3e8f49c4bad99a4d589ec421870a5482d2.stl id:0 copy 0
G1 F8640.000
G1 X303.188 Y296.324 E-0.28190 ; wipe and retract
G1 X302.591 Y296.324 E-0.17719 ; wipe and retract
G1 X303.676 Y297.409 E-0.45557 ; wipe and retract
G1 X303.676 Y297.528 E-0.03535 ; wipe and retract
G1 E-0.05000 F2700.00000 ; retract
G1 Z0.600 F10800.000 ; lift Z
G1 X313.670 Y293.412 ; move to first skirt point
G1 Z0.400 ; restore layer Z
G1 E1.00000 F2700.00000 ; unretract
G1 F3000.000
G1 X313.809 Y294.687 E0.04341 ; skirt
G1 X313.809 Y305.293 E0.35900 ; skirt
G1 X313.720 Y306.286 E0.03375 ; skirt
G1 X313.517 Y307.270 E0.03399 ; skirt
G1 X313.203 Y308.224 E0.03399 ; skirt
G1 X312.783 Y309.136 E0.03399 ; skirt
G1 X312.258 Y310.001 E0.03424 ; skirt
G1 X311.637 Y310.800 E0.03424 ; skirt
G1 X310.929 Y311.522 E0.03424 ; skirt
G1 X310.143 Y312.158 E0.03424 ; skirt
G1 X309.295 Y312.697 E0.03399 ; skirt
G1 X308.385 Y313.138 E0.03424 ; skirt
G1 X307.430 Y313.473 E0.03424 ; skirt
G1 X306.443 Y313.695 E0.03424 ; skirt
G1 X305.078 Y313.814 E0.04638 ; skirt
G1 X294.487 Y313.799 E0.35850 ; skirt
G1 X293.540 Y313.692 E0.03226 ; skirt
G1 X292.617 Y313.486 E0.03201 ; skirt
G1 X291.721 Y313.182 E0.03201 ; skirt
G1 X290.864 Y312.783 E0.03201 ; skirt
G1 X289.999 Y312.258 E0.03424 ; skirt
G1 X289.200 Y311.637 E0.03424 ; skirt
G1 X288.478 Y310.929 E0.03424 ; skirt
G1 X287.842 Y310.143 E0.03424 ; skirt
G1 X287.303 Y309.295 E0.03399 ; skirt
G1 X286.862 Y308.385 E0.03424 ; skirt
G1 X286.527 Y307.430 E0.03424 ; skirt
G1 X286.305 Y306.443 E0.03424 ; skirt
G1 X286.186 Y305.078 E0.04638 ; skirt
G1 X286.201 Y294.487 E0.35850 ; skirt
G1 X286.308 Y293.540 E0.03226 ; skirt
G1 X286.514 Y292.617 E0.03201 ; skirt
G1 X286.818 Y291.721 E0.03201 ; skirt
G1 X287.217 Y290.864 E0.03201 ; skirt
G1 X288.229 Y289.357 E0.06146 ; skirt
G1 X289.529 Y288.089 E0.06146 ; skirt
G1 X291.062 Y287.115 E0.06146 ; skirt
G1 X292.761 Y286.475 E0.06146 ; skirt
G1 X293.767 Y286.272 E0.03474 ; skirt
G1 X294.790 Y286.188 E0.03474 ; skirt
G1 X305.007 Y286.186 E0.34585 ; skirt
G1 X306.373 Y286.293 E0.04638 ; skirt
G1 X307.706 Y286.612 E0.04638 ; skirt
G1 X308.973 Y287.132 E0.04638 ; skirt
G1 X310.139 Y287.839 E0.04613 ; skirt
G1 X311.187 Y288.722 E0.04638 ; skirt
G1 X312.081 Y289.751 E0.04613 ; skirt
G1 X312.809 Y290.911 E0.04638 ; skirt
G1 X313.348 Y292.171 E0.04638 ; skirt
G1 X313.655 Y293.354 E0.04138 ; skirt
G1 X313.258 Y293.454 F10800.000 ; move to first skirt point
G1 F3000.000
G1 X313.403 Y294.731 E0.04350 ; skirt
G1 X313.402 Y305.301 E0.35777 ; skirt
G1 X313.312 Y306.263 E0.03272 ; skirt
G1 X313.110 Y307.216 E0.03296 ; skirt
G1 X312.799 Y308.138 E0.03296 ; skirt
G1 X312.388 Y309.013 E0.03272 ; skirt
G1 X311.882 Y309.828 E0.03247 ; skirt
G1 X311.283 Y310.586 E0.03272 ; skirt
G1 X310.600 Y311.271 E0.03272 ; skirt
G1 X309.849 Y311.868 E0.03247 ; skirt
G1 X309.035 Y312.375 E0.03247 ; skirt
G1 X308.162 Y312.790 E0.03272 ; skirt
G1 X307.247 Y313.101 E0.03272 ; skirt
G1 X306.309 Y313.304 E0.03247 ; skirt
G1 X305.061 Y313.407 E0.04239 ; skirt
G1 X294.499 Y313.392 E0.35752 ; skirt
G1 X293.581 Y313.287 E0.03126 ; skirt
G1 X292.688 Y313.083 E0.03102 ; skirt
G1 X291.815 Y312.780 E0.03126 ; skirt
G1 X290.987 Y312.388 E0.03102 ; skirt
G1 X290.172 Y311.882 E0.03247 ; skirt
G1 X289.414 Y311.283 E0.03272 ; skirt
G1 X288.729 Y310.600 E0.03272 ; skirt
G1 X288.132 Y309.849 E0.03247 ; skirt
G1 X287.625 Y309.035 E0.03247 ; skirt
G1 X287.210 Y308.162 E0.03272 ; skirt
G1 X286.899 Y307.247 E0.03272 ; skirt
G1 X286.696 Y306.309 E0.03247 ; skirt
G1 X286.593 Y305.061 E0.04239 ; skirt
G1 X286.608 Y294.499 E0.35752 ; skirt
G1 X286.713 Y293.581 E0.03126 ; skirt
G1 X286.917 Y292.688 E0.03102 ; skirt
G1 X287.220 Y291.815 E0.03126 ; skirt
G1 X287.612 Y290.987 E0.03102 ; skirt
G1 X288.595 Y289.554 E0.05881 ; skirt
G1 X289.846 Y288.358 E0.05857 ; skirt
G1 X291.315 Y287.444 E0.05857 ; skirt
G1 X292.940 Y286.849 E0.05857 ; skirt
G1 X293.875 Y286.669 E0.03223 ; skirt
G1 X294.817 Y286.595 E0.03199 ; skirt
G1 X305.007 Y286.593 E0.34492 ; skirt
G1 X306.320 Y286.697 E0.04457 ; skirt
G1 X307.593 Y287.003 E0.04433 ; skirt
G1 X308.804 Y287.503 E0.04433 ; skirt
G1 X309.928 Y288.188 E0.04457 ; skirt
G1 X310.931 Y289.041 E0.04457 ; skirt
G1 X311.784 Y290.035 E0.04433 ; skirt
G1 X312.476 Y291.155 E0.04457 ; skirt
G1 X312.985 Y292.369 E0.04457 ; skirt
G1 X313.243 Y293.396 E0.03584 ; skirt
; printing object f8d50610f5b34a899eb56b710450de3e8f49c4bad99a4d589ec421870a5482d2.stl id:0 copy 0
G1 F8640.000
G1 X313.403 Y294.731 E-0.39917 ; wipe and retract
G1 X313.403 Y296.587 E-0.55083 ; wipe and retract
G1 E-0.05000 F2700.00000 ; retract
G1 Z0.800 F10800.000 ; lift Z
G1 X303.961 Y303.961 ; move to first perimeter point
G1 Z0.400 ; restore layer Z
G1 E1.00000 F2700.00000 ; unretract
G1 F1440.000
G1 X296.039 Y303.961 E0.26814 ; perimeter
G1 X296.039 Y296.039 E0.26814 ; perimeter
G1 X303.961 Y296.039 E0.26814 ; perimeter
G1 X303.961 Y303.901 E0.26611 ; perimeter
G1 X304.368 Y304.368 F10800.000 ; move to first perimeter point
G1 F1440.000
G1 X295.632 Y304.368 E0.29570 ; perimeter
G1 X295.632 Y295.632 E0.29570 ; perimeter
G1 X304.368 Y295.632 E0.29570 ; perimeter
G1 X304.368 Y304.308 E0.29367 ; perimeter
G1 X304.775 Y304.775 F10800.000 ; move to first perimeter point
G1 F1440.000
G1 X295.225 Y304.775 E0.32326 ; perimeter
G1 X295.225 Y295.225 E0.32326 ; perimeter
G1 X304.775 Y295.225 E0.32326 ; perimeter
G1 X304.775 Y304.715 E0.32123 ; perimeter
G1 X304.389 Y304.671 F10800.000 ; move inwards before travel
G1 F8640.000
G1 X301.575 Y304.735 E-0.95000 ; wipe and retract
G1 E-0.05000 F2700.00000 ; retract
G1 Z0.800 F10800.000 ; lift Z
G1 X296.141 Y296.995 ; move to first infill point
G1 Z0.400 ; restore layer Z
G1 E1.00000 F2700.00000 ; unretract
G1 F2400.000
G1 X296.812 Y296.324 E0.03332 ; infill
G1 X297.409 Y296.324 E0.02094 ; infill
G1 X296.324 Y297.409 E0.05384 ; infill
G1 X296.324 Y298.006 E0.02094 ; infill
G1 X298.006 Y296.324 E0.08346 ; infill
G1 X298.603 Y296.324 E0.02094 ; infill
G1 X296.324 Y298.603 E0.11308 ; infill
G1 X296.324 Y299.200 E0.02094 ; infill
G1 X299.200 Y296.324 E0.14270 ; infill
G1 X299.796 Y296.324 E0.02094 ; infill
G1 X296.324 Y299.796 E0.17232 ; infill
G1 X296.324 Y300.393 E0.02094 ; infill
G1 X300.393 Y296.324 E0.20194 ; infill
G1 X300.990 Y296.324 E0.02094 ; infill
G1 X296.324 Y300.990 E0.23156 ; infill
G1 X296.324 Y301.587 E0.02094 ; infill
G1 X301.587 Y296.324 E0.26118 ; infill
G1 X302.184 Y296.324 E0.02094 ; infill
G1 X296.324 Y302.184 E0.29080 ; infill
G1 X296.324 Y302.781 E0.02094 ; infill
G1 X302.781 Y296.324 E0.32041 ; infill
G1 X303.377 Y296.324 E0.02094 ; infill
G1 X296.324 Y303.377 E0.35003 ; infill
G1 X296.324 Y303.676 E0.01047 ; infill
G1 X296.622 Y303.676 E0.01047 ; infill
G1 X303.676 Y296.622 E0.35004 ; infill
G1 X303.676 Y297.219 E0.02094 ; infill
G1 X297.219 Y303.676 E0.32042 ; infill
G1 X297.816 Y303.676 E0.02094 ; infill
G1 X303.676 Y297.816 E0.29080 ; infill
G1 X303.676 Y298.413 E0.02094 ; infill
G1 X298.413 Y303.676 E0.26118 ; infill
G1 X299.010 Y303.676 E0.02094 ; infill
G1 X303.676 Y299.010 E0.23156 ; infill
G1 X303.676 Y299.607 E0.02094 ; infill
G1 X299.607 Y303.676 E0.20194 ; infill
G1 X300.203 Y303.676 E0.02094 ; infill
G1 X303.676 Y300.203 E0.17233 ; infill
G1 X303.676 Y300.800 E0.02094 ; infill
G1 X300.800 Y303.676 E0.14271 ; infill
G1 X301.397 Y303.676 E0.02094 ; infill
G1 X303.676 Y301.397 E0.11309 ; infill
G1 X303.676 Y301.994 E0.02094 ; infill
G1 X301.994 Y303.676 E0.08347 ; infill
G1 X302.591 Y303.676 E0.02094 ; infill
G1 X303.676 Y302.591 E0.05385 ; infill
G1 X303.676 Y303.188 E0.02094 ; infill
G1 X303.004 Y303.859 E0.03332 ; infill
; stop printing object f8d50610f5b34a899eb56b710450de3e8f49c4bad99a4d589ec421870a5482d2.stl id:0 copy 0
G1 F8640.000
G1 X303.676 Y303.188 E-0.28190 ; wipe and retract
